X:220
T:The Clan's March
M:C|
R:March
K:Em
|:B|E>D EF G>F GA|B2 e2 d B2 A|G>F GB AF DE | F2 E2 D3 B |
|E>D EF G>F GA|B2 e2 d B2 A|G>F GB AF DE | FE ED E3:|
|:B| B2 e2 e2 de | f2 fe d B2 B |A2 AB d2 de | dB AB d2 BA |
| B2 e2 e2 de | f2 fe d B2 B|A>G FB AF DE | FE ED E3:|

